assets/svg/icon_blockchain.svg

<svg width="14" height="14" viewBox="0 0 14 14" fill="none" xmlns="http://www.w3.org/2000/svg">
<g id="Topic icon/blockchain">
<path id="Vector" d="M5.25 3.5C5.25 4.32542 5.25 4.73783 4.99333 4.99333C4.73725 5.25 4.32542 5.25 3.5 5.25C2.67458 5.25 2.26217 5.25 2.00667 4.99333C1.75 4.73725 1.75 4.32542 1.75 3.5C1.75 2.67458 1.75 2.26217 2.00667 2.00667C2.26275 1.75 2.67458 1.75 3.5 1.75C4.32542 1.75 4.73783 1.75 4.99333 2.00667C5.25 2.26275 5.25 2.67458 5.25 3.5ZM5.25 3.5H7M10.5 5.25C9.67458 5.25 9.26217 5.25 9.00667 4.99333C8.75 4.73725 8.75 4.32542 8.75 3.5C8.75 2.67458 8.75 2.26217 9.00667 2.00667C9.26275 1.75 9.67458 1.75 10.5 1.75C11.3254 1.75 11.7378 1.75 11.9933 2.00667C12.25 2.26275 12.25 2.67458 12.25 3.5C12.25 4.32542 12.25 4.73783 11.9933 4.99333C11.7372 5.25 11.3254 5.25 10.5 5.25ZM10.5 5.25V7M8.75 10.5C8.75 9.67458 8.75 9.26217 9.00667 9.00667C9.26275 8.75 9.67458 8.75 10.5 8.75C11.3254 8.75 11.7378 8.75 11.9933 9.00667C12.25 9.26275 12.25 9.67517 12.25 10.5C12.25 11.3248 12.25 11.7372 11.9933 11.9933C11.7372 12.25 11.3248 12.25 10.5 12.25C9.67517 12.25 9.26275 12.25 9.00667 11.9933C8.75 11.7372 8.75 11.3254 8.75 10.5ZM8.75 10.5H7M3.5 8.75C4.32542 8.75 4.73783 8.75 4.99333 9.00667C5.25 9.26275 5.25 9.67458 5.25 10.5C5.25 11.3254 5.25 11.7378 4.99333 11.9933C4.73725 12.25 4.32542 12.25 3.5 12.25C2.67458 12.25 2.26217 12.25 2.00667 11.9933C1.75 11.7372 1.75 11.3254 1.75 10.5C1.75 9.67458 1.75 9.26217 2.00667 9.00667C2.26275 8.75 2.67458 8.75 3.5 8.75ZM3.5 8.75V7" stroke="#727689" stroke-linecap="round" stroke-linejoin="round"/>
</g>
</svg>

<svg xmlns="http://www.w3.org/2000/svg" width="14" height="14" fill="none"><path stroke="#727689" stroke-linecap="round" stroke-linejoin="round" d="M5.25 3.5c0 .825 0 1.238-.257 1.493-.256.257-.668.257-1.493.257s-1.238 0-1.493-.257C1.75 4.737 1.75 4.325 1.75 3.5s0-1.238.257-1.493c.256-.257.668-.257 1.493-.257s1.238 0 1.493.257c.257.256.257.668.257 1.493m0 0H7m3.5 1.75c-.825 0-1.238 0-1.493-.257-.257-.256-.257-.668-.257-1.493s0-1.238.257-1.493c.256-.257.668-.257 1.493-.257s1.238 0 1.493.257c.257.256.257.668.257 1.493s0 1.238-.257 1.493c-.256.257-.668.257-1.493.257m0 0V7m-1.75 3.5c0-.825 0-1.238.257-1.493.256-.257.668-.257 1.493-.257s1.238 0 1.493.257c.257.256.257.668.257 1.493s0 1.237-.257 1.493c-.256.257-.668.257-1.493.257s-1.237 0-1.493-.257c-.257-.256-.257-.668-.257-1.493m0 0H7M3.5 8.75c.825 0 1.238 0 1.493.257.257.256.257.668.257 1.493s0 1.238-.257 1.493c-.256.257-.668.257-1.493.257s-1.238 0-1.493-.257c-.257-.256-.257-.668-.257-1.493s0-1.238.257-1.493c.256-.257.668-.257 1.493-.257m0 0V7"/></svg>
